src/images/errorValidation.svg

<svg width="24" height="24" viewBox="0 0 24 24" fill="none" xmlns="http://www.w3.org/2000/svg">
<mask id="mask0_40588_309" style="mask-type:alpha" maskUnits="userSpaceOnUse" x="0" y="0" width="24" height="24">
<rect width="24" height="24" fill="#EE3465"/>
</mask>
<g mask="url(#mask0_40588_309)">
<path d="M12 22.025C11.7333 22.025 11.4792 21.975 11.2375 21.875C10.9958 21.775 10.775 21.6333 10.575 21.45L2.55001 13.425C2.36667 13.225 2.22501 13.0042 2.12501 12.7625C2.02501 12.5208 1.97501 12.2667 1.97501 12C1.97501 11.7333 2.02501 11.475 2.12501 11.225C2.22501 10.975 2.36667 10.7583 2.55001 10.575L10.575 2.55C10.775 2.35 10.9958 2.20417 11.2375 2.1125C11.4792 2.02083 11.7333 1.975 12 1.975C12.2667 1.975 12.525 2.02083 12.775 2.1125C13.025 2.20417 13.2417 2.35 13.425 2.55L21.45 10.575C21.65 10.7583 21.7958 10.975 21.8875 11.225C21.9792 11.475 22.025 11.7333 22.025 12C22.025 12.2667 21.9792 12.5208 21.8875 12.7625C21.7958 13.0042 21.65 13.225 21.45 13.425L13.425 21.45C13.2417 21.6333 13.025 21.775 12.775 21.875C12.525 21.975 12.2667 22.025 12 22.025ZM12 20.025L20.025 12L12 3.975L3.97501 12L12 20.025ZM11 13H13V7H11V13ZM12 16C12.2833 16 12.5208 15.9042 12.7125 15.7125C12.9042 15.5208 13 15.2833 13 15C13 14.7167 12.9042 14.4792 12.7125 14.2875C12.5208 14.0958 12.2833 14 12 14C11.7167 14 11.4792 14.0958 11.2875 14.2875C11.0958 14.4792 11 14.7167 11 15C11 15.2833 11.0958 15.5208 11.2875 15.7125C11.4792 15.9042 11.7167 16 12 16Z" fill="#EE3465"/>
</g>
</svg>

<svg width="24" height="24" fill="none" xmlns="http://www.w3.org/2000/svg"><mask id="a" style="mask-type:alpha" maskUnits="userSpaceOnUse" x="0" y="0" width="24" height="24"><path fill="#EE3465" d="M0 0h24v24H0z"/></mask><g mask="url(#a)"><path d="M12 22.025c-.267 0-.52-.05-.762-.15a2.247 2.247 0 0 1-.663-.425L2.55 13.425c-.183-.2-.325-.42-.425-.663-.1-.241-.15-.495-.15-.762s.05-.525.15-.775c.1-.25.242-.467.425-.65l8.025-8.025c.2-.2.42-.346.663-.438a2.234 2.234 0 0 1 1.537 0c.25.092.467.238.65.438l8.025 8.025c.2.183.346.4.438.65a2.233 2.233 0 0 1 0 1.537 1.874 1.874 0 0 1-.438.663l-8.025 8.025c-.183.183-.4.325-.65.425-.25.1-.508.15-.775.15zm0-2L20.025 12 12 3.975 3.975 12 12 20.025zM11 13h2V7h-2v6zm1 3c.283 0 .52-.096.713-.287A.968.968 0 0 0 13 15a.968.968 0 0 0-.287-.713A.968.968 0 0 0 12 14a.968.968 0 0 0-.713.287A.968.968 0 0 0 11 15c0 .283.096.52.287.713.192.191.43.287.713.287z" fill="#EE3465"/></g></svg>
